!!!OTL: ES WAR EINMAL EINE JUEDIN
!!!ARE: Europa, Mitteleuropa, Deutschland, Uckermark, Granzow
!!!SCT: E0098B
!!!YEM: Copyright 1995, estate of Helmut Schaffrath.
**kern
*ICvox
*Ivox
*M3/8
*k[b-]
*F:
{8c
=1
4f
8f
=2
8.g
16b-
16a
16g
=3
8a
8f}
{8ff
=4
8.ee
16dd
8cc
=5
4dd
8bn
=6
4cc}
{8cc
=7
8ff
8ff
8cc
=8
8.dd
16ee
16ff
16dd
=9
8cc
8a}
{8cc
=10
4ff
16cc
16dd
=11
8.cc
16b-
16g
16b-
=12
8a
8f
8r}
=13
{8a
8a
8dd
=14
8cc
8b-
8g
=15
4f}
==
!!!AGN: erzaehlendes Volks - Lied, Sage, Liebe, Leid, Ballade ?
!!!ONB: ESAC (Essen Associative Code) Database: ERK1
!!!AMT: simple triple
!!!AIN: vox
!!!EED: Helmut Schaffrath
!!!EEV: 1.0
*-
